X: 5250
T: Broken Pledge, The
R: reel
M: 4/4
K: Edorian
edBA BE~E2|dBAG FDDF|EFGA Beed|B2Ac Begf|
edBA ~B3c|dBAG FDDF|EFGA Beed|B2AF FE E2:|
edBA Bdef|g2eg fdd2|dAFA d3e|f2eg fbaf|
edBA Bdef|g2eg fdBA|~G3A Beed|B2AF FE E2:|

